X:1
T:Title
%%score { 1 | 2 }
L:1/8
M:3/4
K:D
V:1 treble nm="Grand Piano"
V:2 bass 
V:1
 z2 z2 A2 | A4 A2 | A4 ^G2 | [DG]4 [CG]2 |[M:4/4] [DF]6 [DA]2 |[M:3/4] [Fd]4 d2 | d4 e2 | c6 | %8
[M:1/4] [Ac]2 |[M:3/4] [Ad]4 [Ad]2 | c4 B2 | A4 ^G2 |[M:4/4] [CG]6 F2 |[M:3/4] F4 E2 | B4 C2 | %15
 D6 |] %16
V:2
 z2 z2 [F,A,D]2 | [F,A,D]4 [F,A,D]2 | [E,B,D]4 [E,B,D]2 | [A,,A,]4 [A,,A,]2 | %4
[M:4/4] [D,A,]6 [F,A,]2 |[M:3/4] [B,,B,]4[K:treble] [B,DF]2 | [B,D^G]4 [B,DG]2 | [A,EA]6 | %8
[M:1/4] [G,E]2 |[M:3/4][K:bass] [F,D]4 [F,D]2 | [G,D]4 [G,D]2 | [F,A,D]4 [E,B,D]2 | %12
[M:4/4] [A,,A,]6 [D,A,D]2 |[M:3/4] [G,B,]4 [G,B,]2 | [G,B,E]4 [A,,G,A,]2 | [D,F,A,]6 |] %16

